lib/logo_tmp/nrk-logo-nrk-klassisk.svg

<svg width="116" height="16" viewBox="0 0 116 16" fill="none" xmlns="http://www.w3.org/2000/svg">
<path d="M6.10352e-05 15V1.00123H4.59345V15H6.10352e-05ZM10.8428 3.2292L13.4845 15H8.45743L5.30313 1.00123H8.1226C8.76913 0.99284 9.39647 1.22075 9.88698 1.64208C10.3783 2.04574 10.7158 2.60611 10.8428 3.2292ZM14.1745 15V1.00123H18.7679V15H14.1745ZM22.2373 6.32474C21.7423 6.32957 21.2553 6.20006 20.828 5.95008C20.4065 5.70643 20.0563 5.35624 19.8127 4.93466C19.5625 4.50735 19.4329 4.02018 19.4379 3.525C19.4322 3.03283 19.5618 2.54857 19.8127 2.12512C20.0589 1.70811 20.4087 1.36174 20.828 1.11957C21.2554 0.869879 21.7423 0.740393 22.2373 0.744907C22.7293 0.739608 23.2134 0.86921 23.637 1.11957C24.0521 1.36386 24.3982 1.70995 24.6424 2.12512C24.893 2.54869 25.0226 3.03287 25.0173 3.525C25.0219 4.02014 24.8924 4.50722 24.6424 4.93466C24.4007 5.3544 24.0543 5.70429 23.637 5.95008C23.2133 6.20093 22.7289 6.33057 22.2366 6.32474H22.2373ZM25.727 15V1.00123H30.3208V15H25.727ZM36.1361 8.65123C36.149 8.66481 36.2475 8.82582 36.4318 9.13428C36.616 9.44273 36.8558 9.83709 37.1513 10.3173C37.447 10.7973 37.7591 11.3066 38.0874 11.8453C38.4158 12.384 38.7248 12.8934 39.0144 13.3734C39.3028 13.8534 39.6314 14.3955 40.0001 15H34.9532C34.6376 14.4873 34.3516 14.024 34.0953 13.61C33.839 13.1959 33.5666 12.749 33.2779 12.2692C32.9885 11.7899 32.7024 11.3233 32.4196 10.8693C32.1368 10.4154 31.8938 10.0178 31.6905 9.67653C31.4864 9.33499 31.345 9.10494 31.2663 8.98642C31.0714 8.69231 30.956 8.35264 30.9315 8.00059C30.9511 7.66272 31.0598 7.3361 31.2466 7.05392C31.3255 6.92248 31.4701 6.68912 31.6803 6.35394C31.8906 6.01876 32.1371 5.62119 32.4196 5.16114C32.7022 4.70109 32.9883 4.23116 33.2779 3.7514C33.5675 3.27163 33.8399 2.8214 34.0953 2.40078C34.352 1.9806 34.638 1.51398 34.9532 1.00091H40.0001L36.0963 7.36937C35.9755 7.55845 35.9074 7.77636 35.8991 8.00059C35.9121 8.236 35.9943 8.46233 36.1354 8.65123H36.1361Z" fill="white"/>
<path d="M55.9494 1.01161H53.4874L48.1368 7.17639H47.4015V1.01161H45.3334V14.9956H47.4015V8.67324H47.471L53.2908 15.0153L56.1073 14.9953L49.4304 8.06236L55.9494 1.01161Z" fill="white"/>
<path d="M60.7847 13.5476C60.716 13.5551 60.647 13.5585 60.5779 13.5577C60.4296 13.5621 60.282 13.5351 60.1449 13.4786C60.0255 13.4255 59.9232 13.3403 59.8495 13.2324C59.764 13.1049 59.7069 12.9605 59.6821 12.809C59.6466 12.6075 59.6301 12.4032 59.6328 12.1987V0.125274L57.6238 0.420718V13.0851C57.6155 13.417 57.6689 13.7476 57.7814 14.06C57.8759 14.3138 58.0315 14.5405 58.2344 14.7198C58.4366 14.8931 58.6758 15.0177 58.9336 15.0842C59.2198 15.1584 59.5144 15.1948 59.81 15.1925C59.9679 15.1925 60.1187 15.1859 60.2631 15.1725C60.4075 15.159 60.5487 15.1396 60.6866 15.1137C60.8244 15.0878 60.9393 15.0612 61.0313 15.0349L61.2282 13.4786C61.1494 13.4922 61.0706 13.5053 60.9918 13.518C60.913 13.5307 60.844 13.5406 60.7847 13.5476Z" fill="white"/>
<path d="M71.7651 13.7548C71.6211 13.768 71.4761 13.7462 71.3424 13.6912C71.2086 13.6363 71.0901 13.5499 70.9969 13.4393C70.8142 13.1238 70.7383 12.7578 70.7803 12.3957L70.8197 8.33843C70.824 7.91297 70.771 7.48885 70.6621 7.07755C70.5664 6.71708 70.4062 6.3769 70.1894 6.07341C69.9704 5.77651 69.692 5.52836 69.3721 5.34468C69.0005 5.13339 68.5985 4.98059 68.1804 4.89167C67.6693 4.78124 67.1474 4.72835 66.6245 4.73407C66.2097 4.73389 65.7954 4.76021 65.384 4.81285C64.9951 4.86173 64.61 4.93733 64.2314 5.03905C63.8805 5.13447 63.5353 5.24966 63.1974 5.38407L62.9611 7.0582C63.2893 6.93959 63.6012 6.8411 63.8967 6.76275C64.1921 6.68441 64.4776 6.61876 64.7534 6.5658C65.0235 6.51403 65.2964 6.47783 65.5707 6.45745C65.8397 6.43776 66.1058 6.42792 66.3688 6.42792C66.7703 6.41931 67.1711 6.46571 67.56 6.5658C67.8439 6.63681 68.105 6.77919 68.3183 6.97942C68.5083 7.17408 68.6441 7.41496 68.7122 7.67826C68.7963 8.00307 68.8362 8.33775 68.8308 8.67322L68.8284 9.16762L66.526 9.32322C65.7386 9.34519 64.9628 9.51905 64.2413 9.83528C63.7013 10.0715 63.2352 10.4492 62.8922 10.9284C62.6009 11.3547 62.4463 11.8597 62.449 12.376C62.4453 12.8604 62.5639 13.3379 62.7937 13.7643C63.0345 14.2025 63.397 14.5618 63.8375 14.7986C64.3748 15.0781 64.9753 15.2138 65.5806 15.1925C66.1478 15.2057 66.7124 15.112 67.2449 14.9165C67.7054 14.7362 68.1267 14.4687 68.4858 14.1286C68.622 13.9978 68.7513 13.86 68.8731 13.7157C68.9114 13.9197 68.9835 14.1158 69.0864 14.296C69.262 14.5975 69.532 14.8329 69.8546 14.9657C70.2112 15.1089 70.593 15.1791 70.9772 15.1722C71.0954 15.1722 71.2103 15.1692 71.3219 15.1623C71.4315 15.156 71.5403 15.1396 71.6469 15.1134C71.7519 15.0868 71.8468 15.0639 71.9325 15.0445C72.0096 15.0269 72.0852 15.0039 72.159 14.9756L72.3756 13.6556C72.2669 13.6931 72.1548 13.7196 72.0408 13.7347C71.9494 13.747 71.8573 13.7537 71.7651 13.7548ZM68.4858 12.8684C68.2722 13.0371 68.0411 13.1823 67.7964 13.3014C67.5527 13.4201 67.2944 13.5063 67.0282 13.5578C66.7525 13.6109 66.4723 13.6373 66.1915 13.6365C65.8704 13.6458 65.5511 13.5853 65.2556 13.4593C65.0154 13.3548 64.8127 13.1795 64.6746 12.9567C64.5382 12.7207 64.47 12.4513 64.4776 12.1788C64.4586 11.8505 64.5487 11.5252 64.7337 11.2534C64.948 11.0031 65.2386 10.8301 65.5609 10.761C66.064 10.6424 66.5805 10.5894 67.0972 10.6034H68.8219L68.813 12.5582C68.713 12.6709 68.6036 12.7746 68.4858 12.8684Z" fill="white"/>
<path d="M80.4702 10.4655C80.2686 10.2517 80.0363 10.069 79.7809 9.92359C79.5165 9.77242 79.2398 9.64392 78.9537 9.53951C78.7436 9.47385 78.5368 9.40492 78.3333 9.3327C78.1298 9.26048 77.9262 9.19484 77.7227 9.13575C77.5188 9.07666 77.3218 9.01427 77.1318 8.94862C76.9532 8.88793 76.7789 8.81548 76.6099 8.73167C76.4481 8.64559 76.2933 8.5468 76.147 8.43623C76.012 8.33453 75.8982 8.20727 75.8122 8.06168C75.7253 7.91232 75.681 7.74205 75.6839 7.56929C75.6788 7.37948 75.7267 7.19198 75.8224 7.02797C75.9252 6.86671 76.0676 6.73447 76.236 6.64389C76.4421 6.53068 76.6648 6.45082 76.8958 6.40723C77.1846 6.35194 77.4782 6.32566 77.7723 6.32877C77.9164 6.32877 78.0743 6.33568 78.2447 6.34848C78.4151 6.36129 78.6025 6.38458 78.8063 6.41741C79.0102 6.45023 79.2127 6.49292 79.4168 6.54511C79.621 6.59731 79.8272 6.65702 80.0373 6.72235C80.2318 6.7825 80.4224 6.85487 80.6078 6.93901L80.7463 5.34398C80.4966 5.23894 80.2504 5.14693 80.0077 5.06793C79.7651 4.98956 79.5186 4.92379 79.2691 4.87094C79.0255 4.8193 78.7788 4.78314 78.5306 4.76263C78.287 4.74294 78.048 4.7331 77.8114 4.7331C77.2673 4.72759 76.7247 4.79044 76.1963 4.92019C75.7446 5.03007 75.315 5.21662 74.9262 5.47169C74.5735 5.70472 74.2855 6.02314 74.0888 6.39737C73.8833 6.80975 73.7819 7.26622 73.7934 7.72685C73.7875 8.05862 73.8408 8.38878 73.951 8.70178C74.0448 8.96421 74.1849 9.20772 74.3646 9.42069C74.5398 9.62158 74.742 9.79722 74.9653 9.94262C75.1979 10.0953 75.4454 10.2239 75.7039 10.3267C75.8479 10.3792 75.999 10.4316 76.1572 10.4839C76.3148 10.5368 76.4688 10.586 76.6201 10.6316C76.7715 10.6773 76.9181 10.7239 77.0632 10.7695C77.2083 10.8152 77.3485 10.8617 77.4864 10.9074C77.6243 10.953 77.7588 10.9963 77.8901 11.0357C78.0664 11.098 78.2377 11.1737 78.4026 11.2619C78.547 11.3386 78.6825 11.4312 78.8063 11.538C78.9152 11.6334 79.0025 11.7509 79.0624 11.8827C79.1222 12.0191 79.1524 12.1667 79.1507 12.3156C79.1577 12.4613 79.1322 12.6067 79.076 12.7413C79.0198 12.8759 78.9343 12.9962 78.8257 13.0936C78.5819 13.2975 78.2906 13.4365 77.9788 13.4977C77.6135 13.5782 77.2404 13.6177 76.8663 13.6155C76.6323 13.614 76.3987 13.5977 76.1668 13.5666C75.9109 13.5338 75.6419 13.4879 75.3596 13.4288C75.0773 13.3697 74.7883 13.2974 74.4929 13.2121C74.1973 13.1268 73.8985 13.0316 73.5968 12.9265L73.6752 14.6006C74.0164 14.719 74.3283 14.8142 74.6108 14.8862C74.8933 14.9582 75.1626 15.0207 75.4186 15.0737C75.6652 15.1248 75.9153 15.1578 76.1668 15.1722C76.4097 15.1857 76.6559 15.1924 76.9054 15.1922C77.4548 15.195 78.003 15.1388 78.5404 15.0244C79.0135 14.9285 79.4665 14.752 79.8797 14.5025C80.2522 14.2751 80.5606 13.9567 80.7759 13.5771C81.0012 13.1603 81.1131 12.6915 81.1002 12.2178C81.1086 11.8723 81.0519 11.5284 80.9331 11.2038C80.8272 10.9305 80.6701 10.6799 80.4702 10.4655Z" fill="white"/>
<path d="M89.7073 10.4656C89.5056 10.2518 89.2732 10.0691 89.0179 9.92359C88.7534 9.77235 88.4766 9.64385 88.1903 9.53951C87.9803 9.47386 87.7735 9.40492 87.57 9.3327C87.3664 9.26049 87.1629 9.19484 86.9594 9.13576C86.7558 9.07667 86.5589 9.01428 86.3685 8.94862C86.1899 8.88788 86.0156 8.81543 85.8466 8.73168C85.6847 8.6456 85.5299 8.54681 85.3837 8.43623C85.2487 8.33455 85.1351 8.20728 85.0493 8.06169C84.9622 7.91239 84.9178 7.74208 84.9209 7.5693C84.9156 7.37951 84.9635 7.19203 85.059 7.02798C85.1616 6.86655 85.3041 6.73427 85.4726 6.64389C85.6787 6.53068 85.9014 6.45082 86.1325 6.40724C86.4212 6.35197 86.7147 6.32569 87.0086 6.32878C87.1531 6.32878 87.3106 6.33569 87.4816 6.34849C87.6527 6.36129 87.8391 6.38459 88.043 6.41741C88.2468 6.45024 88.4497 6.49293 88.6532 6.54512C88.8568 6.59731 89.0635 6.65703 89.2739 6.72235C89.4686 6.78249 89.6593 6.85487 89.8448 6.93902L89.983 5.34399C89.7333 5.23895 89.4871 5.14694 89.2444 5.06794C89.0018 4.98951 88.7552 4.92373 88.5058 4.87095C88.2621 4.81931 88.0154 4.78314 87.7672 4.76264C87.5238 4.74294 87.2842 4.73311 87.0483 4.73311C86.5043 4.72754 85.9617 4.79039 85.4333 4.9202C84.9814 5.02997 84.5517 5.21652 84.1629 5.4717C83.8102 5.70472 83.5224 6.02315 83.3259 6.39738C83.12 6.80963 83.0185 7.26619 83.0304 7.72686C83.0244 8.05865 83.0779 8.38883 83.1883 8.70179C83.2817 8.96439 83.4218 9.20796 83.6019 9.4207C83.7769 9.62172 83.9791 9.79737 84.2026 9.94263C84.4352 10.0953 84.6827 10.2239 84.9412 10.3267C85.0852 10.3792 85.2362 10.4316 85.3942 10.4839C85.5518 10.5368 85.7058 10.586 85.8571 10.6316C86.0084 10.6773 86.1554 10.7239 86.2999 10.7695C86.4443 10.8152 86.5855 10.8617 86.7233 10.9074C86.8612 10.953 86.9958 10.9963 87.1274 11.0357C87.3035 11.098 87.4746 11.1737 87.6392 11.2619C87.7839 11.3384 87.9194 11.431 88.0433 11.538C88.1522 11.6333 88.2394 11.7508 88.299 11.8827C88.3594 12.0189 88.3897 12.1666 88.388 12.3156C88.395 12.4613 88.3695 12.6068 88.3132 12.7414C88.2569 12.8759 88.1713 12.9963 88.0627 13.0936C87.8189 13.2975 87.5276 13.4365 87.2157 13.4977C86.8504 13.5782 86.4773 13.6178 86.1033 13.6155C85.8694 13.614 85.6358 13.5977 85.404 13.5667C85.148 13.5338 84.8788 13.4879 84.5965 13.4288C84.3142 13.3697 84.0253 13.2975 83.7296 13.2121C83.4344 13.1268 83.1358 13.0316 82.8338 12.9265L82.9126 14.6006C83.2535 14.719 83.5653 14.8142 83.8481 14.8862C84.1308 14.9582 84.4 15.0207 84.6556 15.0737C84.9023 15.1249 85.1525 15.1578 85.404 15.1722C85.6467 15.1858 85.8929 15.1924 86.1426 15.1922C86.6919 15.1951 87.2398 15.1388 87.7771 15.0244C88.2501 14.9286 88.7032 14.752 89.1164 14.5025C89.489 14.2752 89.7975 13.9567 90.0129 13.5772C90.2383 13.1603 90.3503 12.6916 90.3375 12.2178C90.3458 11.8723 90.289 11.5283 90.1701 11.2038C90.0643 10.9305 89.9072 10.6799 89.7073 10.4656Z" fill="white"/>
<path d="M94.4441 0.627468C94.2397 0.502566 94.0043 0.437739 93.7649 0.440376C93.5223 0.438526 93.2839 0.503226 93.0756 0.627468C92.8702 0.747674 92.6978 0.916833 92.5736 1.11986C92.4484 1.32408 92.3835 1.55954 92.3862 1.79907C92.3843 2.04169 92.4491 2.28016 92.5736 2.48841C92.694 2.69437 92.8673 2.86438 93.0756 2.9808C93.286 3.09891 93.5236 3.16003 93.7649 3.15808C94.003 3.16077 94.2376 3.09955 94.4441 2.9808C94.6467 2.86343 94.8135 2.69324 94.9269 2.48841C95.045 2.27798 95.1062 2.04037 95.1042 1.79907C95.107 1.56089 95.0457 1.32632 94.9269 1.11986C94.8098 0.917829 94.6438 0.748503 94.4441 0.627468Z" fill="white"/>
<path d="M92.7207 14.9953H94.7297V4.75349L92.7207 5.04893V14.9953Z" fill="white"/>
<path d="M104.026 10.4656C103.824 10.2517 103.592 10.069 103.337 9.92359C103.072 9.77236 102.795 9.64386 102.509 9.53951C102.299 9.47386 102.093 9.40492 101.889 9.33271C101.686 9.26049 101.482 9.19484 101.278 9.13576C101.075 9.07667 100.878 9.01428 100.687 8.94862C100.509 8.88792 100.335 8.81547 100.166 8.73168C100.004 8.64568 99.8488 8.54688 99.7025 8.43624C99.5675 8.33452 99.4539 8.20726 99.368 8.06169C99.281 7.91239 99.2366 7.74208 99.2397 7.5693C99.2345 7.37951 99.2823 7.19203 99.3779 7.02798C99.4805 6.86657 99.6229 6.73429 99.7915 6.6439C99.9975 6.53069 100.22 6.45082 100.451 6.40724C100.74 6.35197 101.034 6.32568 101.328 6.32878C101.472 6.32878 101.63 6.33569 101.8 6.34849C101.971 6.36129 102.158 6.38459 102.362 6.41741C102.566 6.45024 102.768 6.49293 102.972 6.54512C103.176 6.59731 103.382 6.65703 103.593 6.72235C103.787 6.78251 103.978 6.85488 104.164 6.93902L104.302 5.34399C104.052 5.23895 103.806 5.14694 103.563 5.06794C103.321 4.98949 103.074 4.92371 102.825 4.87095C102.581 4.81931 102.334 4.78314 102.086 4.76264C101.843 4.74294 101.603 4.73311 101.367 4.73311C100.823 4.72754 100.28 4.79039 99.752 4.9202C99.3001 5.02995 98.8705 5.21651 98.4817 5.4717C98.1291 5.70473 97.8411 6.02316 97.6446 6.39738C97.4387 6.80965 97.3373 7.26619 97.3492 7.72686C97.3432 8.05866 97.3967 8.38885 97.5071 8.70179C97.6005 8.96439 97.7406 9.20796 97.9207 9.4207C98.0958 9.62166 98.298 9.79731 98.5215 9.94263C98.754 10.0953 99.0015 10.2239 99.2601 10.3267C99.4041 10.3792 99.555 10.4316 99.713 10.4839C99.871 10.5362 100.025 10.5855 100.176 10.6316C100.326 10.678 100.474 10.724 100.619 10.7695C100.763 10.8151 100.905 10.861 101.042 10.9074C101.18 10.9536 101.315 10.9963 101.446 11.0357C101.622 11.098 101.794 11.1737 101.958 11.2619C102.103 11.3385 102.238 11.4311 102.362 11.538C102.471 11.6332 102.558 11.7508 102.618 11.8827C102.678 12.0189 102.709 12.1666 102.707 12.3156C102.714 12.4613 102.688 12.6067 102.632 12.7413C102.576 12.8759 102.49 12.9962 102.382 13.0936C102.138 13.2974 101.846 13.4364 101.535 13.4977C101.169 13.5782 100.796 13.6178 100.422 13.6155C100.188 13.614 99.9547 13.5977 99.7229 13.5667C99.4668 13.5338 99.1977 13.4879 98.9154 13.4288C98.6331 13.3697 98.344 13.2975 98.0484 13.2121C97.7534 13.1268 97.4548 13.0316 97.1526 12.9265L97.2313 14.6006C97.5725 14.719 97.8844 14.8142 98.1669 14.8862C98.4494 14.9582 98.7186 15.0207 98.9744 15.0737C99.2211 15.1249 99.4713 15.1578 99.7229 15.1722C99.9656 15.1858 100.212 15.1924 100.461 15.1922C101.011 15.195 101.559 15.1388 102.096 15.0244C102.569 14.9285 103.022 14.752 103.436 14.5025C103.808 14.2751 104.116 13.9566 104.332 13.5772C104.557 13.1603 104.669 12.6916 104.656 12.2178C104.665 11.8723 104.608 11.5283 104.489 11.2038C104.383 10.9305 104.226 10.6799 104.026 10.4656Z" fill="white"/>
<path d="M113.107 14.9953H115.707L110.93 9.61175L115.609 4.95044H113.147L109.777 8.65325H109.05V0.125L107.041 0.420404V14.9953H109.05V10.1698H109.083L113.107 14.9953Z" fill="white"/>
</svg>

<svg xmlns="http://www.w3.org/2000/svg" viewBox="0 0 116 16"><path fill="#fff" d="M0 15V1.001h4.593V15H0ZM10.843 3.23 13.485 15H8.457L5.303 1.001h2.82a2.655 2.655 0 0 1 1.764.641c.491.404.829.964.956 1.587ZM14.175 15V1.001h4.593V15h-4.594Zm8.062-8.675a2.779 2.779 0 0 1-2.425-1.39 2.735 2.735 0 0 1-.374-1.41 2.685 2.685 0 0 1 .375-1.4 2.813 2.813 0 0 1 3.824-1.005c.415.244.761.59 1.005 1.005.251.424.38.908.375 1.4.005.495-.125.982-.375 1.41a2.8 2.8 0 0 1-1.005 1.015c-.424.25-.908.38-1.4.375ZM25.727 15V1.001h4.594V15h-4.594Zm10.41-6.349c.012.014.11.175.295.483.184.309.424.703.72 1.183a373.133 373.133 0 0 1 1.862 3.056c.289.48.617 1.023.986 1.627h-5.047c-.315-.513-.601-.976-.858-1.39-.256-.414-.528-.861-.817-1.34-.29-.48-.576-.947-.858-1.4a71.28 71.28 0 0 1-.73-1.193 20.74 20.74 0 0 0-.424-.69A2.041 2.041 0 0 1 30.932 8c.02-.338.128-.665.315-.947.079-.132.223-.365.433-.7a212.59 212.59 0 0 0 1.598-2.603l.817-1.35.858-1.4H40l-3.904 6.368c-.12.19-.189.407-.197.632.013.235.095.461.236.65h.001ZM55.95 1.012h-2.463l-5.35 6.164H47.4V1.012h-2.068v13.984h2.069V8.673h.069l5.82 6.342 2.816-.02-6.677-6.933 6.52-7.05ZM60.785 13.548c-.069.007-.138.01-.207.01a1.055 1.055 0 0 1-.433-.08.704.704 0 0 1-.296-.246 1.07 1.07 0 0 1-.167-.423 3.268 3.268 0 0 1-.05-.61V.125l-2.008.296v12.664a2.68 2.68 0 0 0 .157.975c.095.254.25.48.453.66.203.173.442.298.7.364.286.074.58.11.876.109a4.904 4.904 0 0 0 .877-.08 3.9 3.9 0 0 0 .344-.078l.197-1.556-.236.039a5.033 5.033 0 0 1-.207.03ZM71.765 13.755a.896.896 0 0 1-.768-.316 1.693 1.693 0 0 1-.217-1.043l.04-4.058a4.74 4.74 0 0 0-.158-1.26c-.096-.36-.256-.701-.473-1.005a2.664 2.664 0 0 0-.817-.728 4.163 4.163 0 0 0-1.192-.453 7.005 7.005 0 0 0-1.556-.158c-.414 0-.829.026-1.24.079a8.553 8.553 0 0 0-1.153.226c-.35.095-.696.21-1.034.345l-.236 1.674c.328-.118.64-.217.936-.295.295-.079.58-.144.856-.197a7.16 7.16 0 0 1 .818-.109c.269-.02.535-.03.798-.03a4.4 4.4 0 0 1 1.191.139c.284.07.545.213.758.413.19.195.326.436.394.7.084.324.124.659.119.994l-.003.495-2.302.155a6.116 6.116 0 0 0-2.285.512 3.271 3.271 0 0 0-1.349 1.093 2.542 2.542 0 0 0-.443 1.448 2.88 2.88 0 0 0 .345 1.388c.24.439.603.798 1.044 1.035a3.51 3.51 0 0 0 1.743.394 4.524 4.524 0 0 0 1.664-.277 3.84 3.84 0 0 0 1.24-.787c.137-.131.266-.269.388-.413.038.204.11.4.213.58.176.302.446.537.769.67.356.143.738.213 1.122.206.118 0 .233-.003.345-.01.11-.006.218-.022.325-.049.105-.026.2-.05.285-.069a1.67 1.67 0 0 0 .227-.068l.217-1.32c-.11.037-.221.064-.335.079a2.27 2.27 0 0 1-.276.02Zm-3.28-.887a3.785 3.785 0 0 1-.689.433 3.098 3.098 0 0 1-.768.257c-.276.053-.556.08-.837.079-.32.009-.64-.052-.935-.178a1.288 1.288 0 0 1-.581-.502 1.473 1.473 0 0 1-.197-.778 1.491 1.491 0 0 1 .256-.926c.214-.25.505-.423.827-.492a5.99 5.99 0 0 1 1.536-.158h1.725l-.009 1.955c-.1.113-.21.217-.327.31ZM80.47 10.466a2.961 2.961 0 0 0-.69-.542 5.388 5.388 0 0 0-.826-.384c-.21-.066-.417-.135-.62-.207a10.982 10.982 0 0 0-.611-.197c-.204-.06-.401-.122-.591-.187a4.258 4.258 0 0 1-.522-.217 3.474 3.474 0 0 1-.463-.296 1.291 1.291 0 0 1-.335-.374.947.947 0 0 1-.128-.493 1.02 1.02 0 0 1 .138-.541 1.12 1.12 0 0 1 .414-.384c.206-.113.429-.193.66-.237.289-.055.582-.081.876-.078a6.364 6.364 0 0 1 1.034.088c.204.033.407.076.61.128.205.052.411.112.621.177.195.06.385.133.57.217l.14-1.595a9.447 9.447 0 0 0-.74-.276 7.373 7.373 0 0 0-.738-.197 5.907 5.907 0 0 0-.738-.108 8.912 8.912 0 0 0-.72-.03 6.497 6.497 0 0 0-1.615.187c-.451.11-.881.297-1.27.552-.353.233-.64.551-.837.925a2.823 2.823 0 0 0-.296 1.33c-.006.332.048.662.158.975.094.262.234.506.414.719.175.2.377.376.6.522.233.152.48.28.739.384.144.052.295.105.453.157.158.053.312.102.463.148.151.045.298.092.443.138.145.045.285.092.423.137.138.046.273.09.404.129.176.062.348.138.513.226.144.077.28.17.403.276.11.095.197.213.256.345.06.136.09.284.089.433a.982.982 0 0 1-.325.778 1.886 1.886 0 0 1-.847.404c-.365.08-.739.12-1.113.118a5.529 5.529 0 0 1-.7-.05 10.4 10.4 0 0 1-.806-.137c-.283-.06-.572-.132-.867-.217-.296-.085-.594-.18-.896-.285l.078 1.674c.341.118.653.213.936.285.282.072.552.135.808.188.246.05.496.084.748.098.243.014.489.02.738.02a7.665 7.665 0 0 0 1.635-.168 4.208 4.208 0 0 0 1.34-.521 2.57 2.57 0 0 0 .896-.926c.225-.417.337-.886.324-1.36a2.755 2.755 0 0 0-.167-1.013 2.303 2.303 0 0 0-.463-.739ZM89.707 10.466a2.97 2.97 0 0 0-.69-.542 5.375 5.375 0 0 0-.827-.384c-.21-.066-.416-.135-.62-.207a11.009 11.009 0 0 0-.61-.197c-.204-.06-.401-.122-.591-.187a4.275 4.275 0 0 1-.522-.217 3.46 3.46 0 0 1-.463-.296 1.287 1.287 0 0 1-.335-.374.944.944 0 0 1-.128-.493 1.02 1.02 0 0 1 .138-.541c.103-.161.245-.294.414-.384.206-.113.428-.193.66-.237.288-.055.582-.081.876-.078a6.383 6.383 0 0 1 1.034.088c.204.033.407.076.61.128.204.052.41.112.62.177.196.06.386.133.572.217l.138-1.595a9.447 9.447 0 0 0-.739-.276 7.345 7.345 0 0 0-.738-.197 5.91 5.91 0 0 0-.739-.108 8.91 8.91 0 0 0-.719-.03 6.49 6.49 0 0 0-1.615.187c-.452.11-.881.297-1.27.552-.353.233-.64.551-.837.925a2.813 2.813 0 0 0-.296 1.33 2.78 2.78 0 0 0 .158.975c.094.262.234.506.414.719.175.2.377.376.6.522.233.152.48.28.74.384a16.032 16.032 0 0 0 .915.305c.151.045.298.092.443.138.144.045.285.092.423.137.138.046.273.09.404.129.177.062.348.138.512.226.145.076.28.169.404.276a1.012 1.012 0 0 1 .345.778.981.981 0 0 1-.325.778 1.886 1.886 0 0 1-.847.404c-.366.08-.739.12-1.113.118a5.544 5.544 0 0 1-.699-.05 10.45 10.45 0 0 1-.807-.137c-.283-.06-.572-.132-.867-.217-.296-.085-.594-.18-.896-.285l.079 1.674c.34.118.652.213.935.285.283.072.552.135.808.188.246.05.496.084.748.098.243.014.489.02.739.02a7.654 7.654 0 0 0 1.634-.168 4.207 4.207 0 0 0 1.34-.521 2.57 2.57 0 0 0 .896-.926c.225-.417.337-.885.325-1.36a2.755 2.755 0 0 0-.168-1.013 2.3 2.3 0 0 0-.463-.738ZM94.444.627a1.276 1.276 0 0 0-.68-.187 1.326 1.326 0 0 0-.688.187c-.206.12-.378.29-.502.493-.126.204-.19.44-.188.68-.002.242.063.48.188.688.12.206.293.376.502.493.21.118.448.179.689.177.238.003.473-.058.68-.177.202-.118.369-.288.482-.493.118-.21.18-.448.177-.689a1.33 1.33 0 0 0-.177-.68 1.392 1.392 0 0 0-.483-.492ZM92.72 14.995h2.01V4.753l-2.01.296v9.946ZM104.026 10.466a2.974 2.974 0 0 0-.689-.542 5.416 5.416 0 0 0-.828-.384c-.21-.066-.416-.135-.62-.207a10.723 10.723 0 0 0-.611-.197c-.203-.06-.4-.122-.591-.187a4.29 4.29 0 0 1-.521-.217 3.452 3.452 0 0 1-.463-.296 1.29 1.29 0 0 1-.335-.374.944.944 0 0 1-.128-.493 1.02 1.02 0 0 1 .138-.541c.103-.161.245-.294.413-.384.207-.113.429-.193.66-.237.289-.055.583-.081.877-.078a6.347 6.347 0 0 1 1.034.088c.204.033.406.076.61.128.204.052.41.112.621.177.194.06.385.133.571.217l.138-1.595a9.455 9.455 0 0 0-.739-.276 7.31 7.31 0 0 0-.738-.197 5.93 5.93 0 0 0-.739-.108 8.902 8.902 0 0 0-.719-.03 6.489 6.489 0 0 0-1.615.187c-.452.11-.881.297-1.27.552-.353.233-.64.551-.837.925a2.813 2.813 0 0 0-.296 1.33 2.78 2.78 0 0 0 .158.975c.093.262.234.506.414.719.175.2.377.376.6.522.233.152.48.28.74.384a16.023 16.023 0 0 0 .915.305l.443.138c.144.045.286.091.423.137.138.047.273.09.404.129.176.062.348.138.512.226.145.076.28.17.404.276a1.015 1.015 0 0 1 .345.778.986.986 0 0 1-.325.778 1.894 1.894 0 0 1-.847.404c-.366.08-.739.12-1.113.118a5.54 5.54 0 0 1-.7-.05 10.441 10.441 0 0 1-.807-.137c-.282-.06-.571-.132-.867-.217a17.67 17.67 0 0 1-.895-.285l.078 1.674c.342.118.653.213.936.285.282.072.552.135.807.188.247.05.497.084.749.098.243.014.489.02.738.02a7.659 7.659 0 0 0 1.635-.168 4.22 4.22 0 0 0 1.34-.521 2.58 2.58 0 0 0 .896-.926c.225-.417.337-.885.324-1.36a2.738 2.738 0 0 0-.167-1.013 2.301 2.301 0 0 0-.463-.738ZM113.107 14.995h2.6l-4.777-5.383 4.679-4.662h-2.462l-3.37 3.703h-.727V.125l-2.009.295v14.575h2.009V10.17h.033l4.024 4.825Z"/></svg>
